imgs/Icons/playback page/like-icon.svg

<svg xmlns="http://www.w3.org/2000/svg" viewBox="0 0 270 270" width="270" height="270" preserveAspectRatio="xMidYMid meet" style="width: 100%; height: 100%; transform: translate3d(0px, 0px, 0px);"><defs><clipPath id="__lottie_element_225"><rect width="270" height="270" x="0" y="0"></rect></clipPath><clipPath id="__lottie_element_227"><path d="M0,0 L480,0 L480,480 L0,480z"></path></clipPath><clipPath id="__lottie_element_230"><path d="M0,0 L480,0 L480,480 L0,480z"></path></clipPath><clipPath id="__lottie_element_240"><path d="M0,0 L480,0 L480,480 L0,480z"></path></clipPath><clipPath id="__lottie_element_249"><path d="M0,0 L480,0 L480,480 L0,480z"></path></clipPath><clipPath id="__lottie_element_258"><path d="M0,0 L480,0 L480,480 L0,480z"></path></clipPath><clipPath id="__lottie_element_267"><path d="M0,0 L480,0 L480,480 L0,480z"></path></clipPath><clipPath id="__lottie_element_276"><path d="M0,0 L480,0 L480,480 L0,480z"></path></clipPath></defs><g clip-path="url(#__lottie_element_225)"><g clip-path="url(#__lottie_element_227)" transform="matrix(0.4350000023841858,0,0,0.4350000023841858,28.474998474121094,26.724998474121094)" opacity="1" style="display: block;"><g clip-path="url(#__lottie_element_276)" style="display: none;"><g style="display: none;"><path stroke-linecap="round" stroke-linejoin="round" fill-opacity="0"></path></g><g style="display: none;"><path stroke-linecap="round" stroke-linejoin="round" fill-opacity="0"></path></g></g><g clip-path="url(#__lottie_element_267)" style="display: none;"><g style="display: none;"><path stroke-linecap="round" stroke-linejoin="round" fill-opacity="0"></path></g><g style="display: none;"><path stroke-linecap="round" stroke-linejoin="round" fill-opacity="0"></path></g></g><g clip-path="url(#__lottie_element_258)" style="display: none;"><g style="display: none;"><path stroke-linecap="round" stroke-linejoin="round" fill-opacity="0"></path></g><g style="display: none;"><path stroke-linecap="round" stroke-linejoin="round" fill-opacity="0"></path></g></g><g clip-path="url(#__lottie_element_249)" style="display: none;"><g style="display: none;"><path stroke-linecap="round" stroke-linejoin="round" fill-opacity="0"></path></g><g style="display: none;"><path stroke-linecap="round" stroke-linejoin="round" fill-opacity="0"></path></g></g><g clip-path="url(#__lottie_element_240)" style="display: none;"><g style="display: none;"><path stroke-linecap="round" stroke-linejoin="round" fill-opacity="0"></path></g><g style="display: none;"><path stroke-linecap="round" stroke-linejoin="round" fill-opacity="0"></path></g></g><g clip-path="url(#__lottie_element_230)" transform="matrix(1,0,0,1,0,0)" opacity="1" style="display: block;"><g style="display: none;"><path></path><g><g></g></g></g><g transform="matrix(10,0,0,10,120,120)" opacity="1" style="display: block;"><path fill="rgb(0,0,0)" fill-opacity="1" d=" M8,11 C8,11 3,11 3,11 C3,11 3,21 3,21 C3,21 8,21 8,21 C8,21 8,11 8,11z M18.770000457763672,11 C18.770000457763672,11 14.539999961853027,11 14.539999961853027,11 C14.539999961853027,11 16.059999465942383,6.059999942779541 16.059999465942383,6.059999942779541 C16.3799991607666,5.03000020980835 15.539999961853027,4 14.380000114440918,4 C13.800000190734863,4 13.239999771118164,4.239999771118164 12.859999656677246,4.650000095367432 C12.859999656677246,4.650000095367432 7,11 7,11 C7,11 7,21 7,21 C7,21 17.43000030517578,21 17.43000030517578,21 C18.489999771118164,21 19.40999984741211,20.329999923706055 19.6200008392334,19.389999389648438 C19.6200008392334,19.389999389648438 20.959999084472656,13.390000343322754 20.959999084472656,13.390000343322754 C21.229999542236328,12.149999618530273 20.18000030517578,11 18.770000457763672,11z M7,20 C7,20 4,20 4,20 C4,20 4,12 4,12 C4,12 7,12 7,12 C7,12 7,20 7,20z M19.979999542236328,13.170000076293945 C19.979999542236328,13.170000076293945 18.639999389648438,19.170000076293945 18.639999389648438,19.170000076293945 C18.540000915527344,19.649999618530273 18.030000686645508,20 17.43000030517578,20 C17.43000030517578,20 8,20 8,20 C8,20 8,11.390000343322754 8,11.390000343322754 C8,11.390000343322754 13.600000381469727,5.329999923706055 13.600000381469727,5.329999923706055 C13.789999961853027,5.119999885559082 14.079999923706055,5 14.380000114440918,5 C14.640000343322754,5 14.880000114440918,5.110000133514404 15.010000228881836,5.300000190734863 C15.079999923706055,5.400000095367432 15.15999984741211,5.559999942779541 15.100000381469727,5.769999980926514 C15.100000381469727,5.769999980926514 13.579999923706055,10.710000038146973 13.579999923706055,10.710000038146973 C13.579999923706055,10.710000038146973 13.180000305175781,12 13.180000305175781,12 C13.180000305175781,12 14.529999732971191,12 14.529999732971191,12 C14.529999732971191,12 18.760000228881836,12 18.760000228881836,12 C19.170000076293945,12 19.559999465942383,12.170000076293945 19.790000915527344,12.460000038146973 C19.920000076293945,12.609999656677246 20.049999237060547,12.859999656677246 19.979999542236328,13.170000076293945z"></path></g></g></g></g></svg>

<svg xmlns="http://www.w3.org/2000/svg" enable-background="new 0 0 24 24" height="24" viewBox="0 0 24 24" width="24" focusable="false" aria-hidden="true" style="pointer-events: none; display: inherit; width: 100%; height: 100%;"><path d="M18.77,11h-4.23l1.52-4.94C16.38,5.03,15.54,4,14.38,4c-0.58,0-1.14,0.24-1.52,0.65L7,11H3v10h4h1h9.43 c1.06,0,1.98-0.67,2.19-1.61l1.34-6C21.23,12.15,20.18,11,18.77,11z M7,20H4v-8h3V20z M19.98,13.17l-1.34,6 C18.54,19.65,18.03,20,17.43,20H8v-8.61l5.6-6.06C13.79,5.12,14.08,5,14.38,5c0.26,0,0.5,0.11,0.63,0.3 c0.07,0.1,0.15,0.26,0.09,0.47l-1.52,4.94L13.18,12h1.35h4.23c0.41,0,0.8,0.17,1.03,0.46C19.92,12.61,20.05,12.86,19.98,13.17z"></path></svg>
